!!!!SEGMENT: pl-cz--iii-195--005_elsner-jozef--missa-f-op-25-benedictus.krn
!!!cenid: 18xx:251
!!!COM: Elsner, Józef
!!!COM-rismid: pe30000957
!!!CDT: 1769/06/01-1854/04/18
!!!CNT: Polish
!!!OPR: Missa F op. 25
!!!OTL: Benedictus
!!!OMV: 005
!!!PDT:
!!!AGN: Sacred; Mass
!!!SMS-siglum: PL-CZ
!!!SMS-shelfmark: III-195
!!!SMS-shelfwork: 001-005 M
!!!NIFC-rismid:
!!!URL-scan: http://repozytorium.nifc.pl/skany/pl-cz-nut--iii-195
!!!ONB-nifc: UWAGA: części Mszy: Kyrie, Gloria, Credo, Sanctus, Benedictus, Agnus Dei
!!!key:
**kern	**fba	**kern	**dynam	**kern	**dynam	**kern	**kern	**kern	**kern	**text	**kern	**text	**dynam	**kern	**text	**dynam	**kern	**text
*part10	*	*part9	*part9	*part8	*part8	*part7	*part6	*part5	*part4	*part4	*part3	*part3	*part3	*part2	*part2	*part2	*part1	*part1
*	*	*	*	*	*	*	*group2	*group2	*group1	*	*group1	*	*	*group1	*	*	*group1	*
*staff10	*	*staff9	*	*staff8	*	*staff7	*staff6	*staff5	*staff4	*staff4	*staff3	*staff3	*	*staff2	*staff2	*	*staff1	*staff1
*Iorgan	*	*Icor	*	*Iclars	*	*Iviola	*Iempty	*Iempty	*Iempty	*	*Itenor	*	*	*Ialto	*	*	*Ivox	*
*I"Organo et Baſso	*	*I"Corni in F.	*	*I"Clarinetti in B.	*	*I"Viole	*I""Violini	*I""Violini	*I"Baſso	*	*I"Tenore	*	*	*I"Alto	*	*	*I"Canto	*
*I'10	*	*I'9	*	*I'8	*	*I'7	*I'6	*I'5	*I'4	*	*I'3	*	*	*I'2	*	*	*I'1	*
*clefF4	*	*clefG2	*	*clefG2	*	*clefC3	*clefG2	*clefG2	*clefF4	*	*clefC4	*	*	*clefC3	*	*	*clefC1	*
*	*	*ITrd4c7	*	*ITrd1c2	*	*	*	*	*	*	*	*	*	*	*	*	*	*
*k[b-e-]	*	*k[b-]	*	*k[b-e-]	*	*k[b-e-]	*k[b-e-]	*k[b-e-]	*k[b-e-]	*	*k[b-e-]	*	*	*k[b-e-]	*	*	*k[b-e-]	*
*B-:	*	*B-:	*	*B-:	*	*B-:	*B-:	*B-:	*B-:	*	*B-:	*	*	*B-:	*	*	*B-:	*
*M2/4	*	*M2/4	*	*M2/4	*	*M2/4	*M2/4	*M2/4	*M2/4	*	*M2/4	*	*	*M2/4	*	*	*M2/4	*
=1	=1	=1	=1	=1	=1	=1	=1	=1	=1	=1	=1	=1	=1	=1	=1	=1	=1	=1
!	!	!	!	!	!	!	!	!	!	!	!	!	!	!	!	!	!LO:TX:a:t=Andantino	!
!	!	!	!	!	!	!	!	!LO:TX:a:t=dolce	!	!	!	!	!	!	!	!	!LO:TX:a:t=Benedictus	!
!	!	!	!	!	!	!	!	!	!	!	!	!	!	!	!	!	!LO:TX:a:t=P:problem=nazwy głosów i system-decoration wzięte z początku partytury (Kyrie str. 4)	!
(16BB-/LL	.	2r	.	4dd\ 4ff	.	(16B-\LL	(4d/	(4f/	2r	.	2r	.	.	2r	.	.	2r	.
16D/	.	.	.	.	.	16d\	.	.	.	.	.	.	.	.	.	.	.	.
16F/	.	.	.	.	.	16f\	.	.	.	.	.	.	.	.	.	.	.	.
16D/JJ	.	.	.	.	.	16d\JJ	.	.	.	.	.	.	.	.	.	.	.	.
8BB-/)	.	.	.	16cc#X\LL 16eeX	.	8B-/)	16c#X/LL	16en/LL	.	.	.	.	.	.	.	.	.	.
.	.	.	.	16dd\ 16ff	.	.	16d/	16f/	.	.	.	.	.	.	.	.	.	.
8r	.	.	.	16ee\ 16gg	.	8r	16e-/	16g/	.	.	.	.	.	.	.	.	.	.
.	.	.	.	16dd\JJ 16ff	.	.	16d/JJ)	16f/JJ)	.	.	.	.	.	.	.	.	.	.
=2	=2	=2	=2	=2	=2	=2	=2	=2	=2	=2	=2	=2	=2	=2	=2	=2	=2	=2
!LO:TX:a:t=P:problem= mixed beam	!	!	!	!	!	!	!	!	!	!	!	!	!	!	!	!	!	!
16BB-/LL	.	2r	.	8.dd\L 8.ff	.	4.B-/	8.d/L	8.f/L	2r	.	2r	.	.	2r	.	.	2r	.
16B-\JJ	.	.	.	.	.	.	.	.	.	.	.	.	.	.	.	.	.	.
8BB-/	.	.	.	.	.	.	.	.	.	.	.	.	.	.	.	.	.	.
.	.	.	.	16b-\Jk 16dd	.	.	16B-/Jk	16d/Jk	.	.	.	.	.	.	.	.	.	.
4r	.	.	.	16dd\LL 16ff	.	.	16d/LL	(16f/LL	.	.	.	.	.	.	.	.	.	.
.	.	.	.	16gg\ 16bb-	.	.	16g/	16b-/	.	.	.	.	.	.	.	.	.	.
.	.	.	.	16ff\ 16aa	.	8r	16f/	16a/	.	.	.	.	.	.	.	.	.	.
.	.	.	.	16ee-X\JJ 16gg	.	.	16e-/JJ	16g/JJ)	.	.	.	.	.	.	.	.	.	.
=3	=3	=3	=3	=3	=3	=3	=3	=3	=3	=3	=3	=3	=3	=3	=3	=3	=3	=3
!LO:TX:a:t=P:problem= mixed beam	!	!	!	!	!	!	!	!	!	!	!	!	!	!	!	!	!	!
16BB-/LL	.	2r	.	8.dd\L 8.ff	.	4.B-/	8.d/L	8.f/L	2r	.	2r	.	.	2r	.	.	2r	.
16B-\JJ	.	.	.	.	.	.	.	.	.	.	.	.	.	.	.	.	.	.
8BB-/	.	.	.	.	.	.	.	.	.	.	.	.	.	.	.	.	.	.
.	.	.	.	16b-\Jk 16dd	.	.	16B-/Jk	16d/Jk	.	.	.	.	.	.	.	.	.	.
4r	.	.	.	(16dd\LL 16ff	.	.	16d/LL	16f/LL	.	.	.	.	.	.	.	.	.	.
.	.	.	.	16b-\ 16dd	.	.	16B-/	16d/	.	.	.	.	.	.	.	.	.	.
.	.	.	.	16cc\ 16ee-	.	8r	16c/	16e-/	.	.	.	.	.	.	.	.	.	.
.	.	.	.	16dd\JJ 16ff	.	.	16d/JJ	16f/JJ	.	.	.	.	.	.	.	.	.	.
=4	=4	=4	=4	=4	=4	=4	=4	=4	=4	=4	=4	=4	=4	=4	=4	=4	=4	=4
*	*	*	*	*^	*	*	*	*	*	*	*	*	*	*	*	*	*	*
*	*	*	*	*	*	*	*	*tremolo	*tremolo	*	*	*	*	*	*	*	*	*	*
8E-\	.	2r	.	32gg/LLL)	8ee-\	.	8E-/	16e-/LL	(16g/LL	2r	.	2r	.	.	2r	.	.	2r	.
.	.	.	.	32ee-/	.	.	.	.	.	.	.	.	.	.	.	.	.	.	.
.	.	.	.	32b-/	.	.	.	16e-/	16g/	.	.	.	.	.	.	.	.	.	.
.	.	.	.	32g/JJJ	.	.	.	.	.	.	.	.	.	.	.	.	.	.	.
8r	.	.	.	8.e-/	8r	.	8r	16e-/	16g/	.	.	.	.	.	.	.	.	.	.
.	.	.	.	.	.	.	.	16e-/	16g/	.	.	.	.	.	.	.	.	.	.
8E-\	.	.	.	.	4r	.	8E-/	16e-/	16g/	.	.	.	.	.	.	.	.	.	.
.	.	.	.	32ee-/LLL	.	.	.	16e-/	16g/	.	.	.	.	.	.	.	.	.	.
.	.	.	.	32ff/JJJ	.	.	.	.	.	.	.	.	.	.	.	.	.	.	.
8r	.	.	.	32gg/LLL	.	.	8r	16e-/	16g/	.	.	.	.	.	.	.	.	.	.
.	.	.	.	32aa/	.	.	.	.	.	.	.	.	.	.	.	.	.	.	.
.	.	.	.	32bb-/	.	.	.	16e-/JJ	16g/JJ	.	.	.	.	.	.	.	.	.	.
.	.	.	.	32gg/JJJ	.	.	.	.	.	.	.	.	.	.	.	.	.	.	.
=5	=5	=5	=5	=5	=5	=5	=5	=5	=5	=5	=5	=5	=5	=5	=5	=5	=5	=5	=5
8D\	.	2r	.	32ff/LLL	2rB	.	8D/	16B-/LL	16f/LL)	2r	.	2r	.	.	2r	.	.	2r	.
.	.	.	.	32dd/	.	.	.	.	.	.	.	.	.	.	.	.	.	.	.
.	.	.	.	32b-/	.	.	.	16B-/	16f/	.	.	.	.	.	.	.	.	.	.
.	.	.	.	32f/JJJ	.	.	.	.	.	.	.	.	.	.	.	.	.	.	.
8r	.	.	.	8.d/	.	.	8r	16B-/	16f/	.	.	.	.	.	.	.	.	.	.
.	.	.	.	.	.	.	.	16B-/	16f/	.	.	.	.	.	.	.	.	.	.
8D\	.	.	.	.	.	.	8D/	16B-/	16f/	.	.	.	.	.	.	.	.	.	.
.	.	.	.	(32bb-\LLL	.	.	.	16B-/	16f/	.	.	.	.	.	.	.	.	.	.
.	.	.	.	32aa\JJJ	.	.	.	.	.	.	.	.	.	.	.	.	.	.	.
8r	.	.	.	32gg\LLL	.	.	8r	16B-/	16f/	.	.	.	.	.	.	.	.	.	.
.	.	.	.	32ff\	.	.	.	.	.	.	.	.	.	.	.	.	.	.	.
.	.	.	.	32ee-\	.	.	.	16B-/JJ	16f/JJ	.	.	.	.	.	.	.	.	.	.
.	.	.	.	32dd\JJJ	.	.	.	.	.	.	.	.	.	.	.	.	.	.	.
=6	=6	=6	=6	=6	=6	=6	=6	=6	=6	=6	=6	=6	=6	=6	=6	=6	=6	=6	=6
8E-\	.	2r	.	32dd\LLL)	2rB	.	8E-/	8r	8r	2r	.	2r	.	.	2r	.	.	2r	.
.	.	.	.	32cc\	.	.	.	.	.	.	.	.	.	.	.	.	.	.	.
.	.	.	.	32bX\	.	.	.	.	.	.	.	.	.	.	.	.	.	.	.
.	.	.	.	32cc\JJJ	.	.	.	.	.	.	.	.	.	.	.	.	.	.	.
8r	.	.	.	4cc\	.	.	8r	8G/	8e-/	.	.	.	.	.	.	.	.	.	.
8En\	.	.	.	.	.	.	8En/	8r	8r	.	.	.	.	.	.	.	.	.	.
8r	.	.	.	8b-\	.	.	8r	8c/	8g/ 8b-	.	.	.	.	.	.	.	.	.	.
*	*	*	*	*v	*v	*	*	*	*	*	*	*	*	*	*	*	*	*	*
=7	=7	=7	=7	=7	=7	=7	=7	=7	=7	=7	=7	=7	=7	=7	=7	=7	=7	=7
!	!	!	!LO:DY:a	!	!	!	!	!	!	!	!	!	!	!	!	!	!	!
8F\	.	2F/ [2f	pp	32a\LLL	.	2F/	8r	8r	2r	.	2r	.	.	2r	.	.	2r	.
.	.	.	.	32cc\	.	.	.	.	.	.	.	.	.	.	.	.	.	.
.	.	.	.	32eeX\	.	.	.	.	.	.	.	.	.	.	.	.	.	.
.	.	.	.	32gg\JJJ	.	.	.	.	.	.	.	.	.	.	.	.	.	.
8r	.	.	.	16.ff\LL	.	.	8c/	8f/ 8a	.	.	.	.	.	.	.	.	.	.
.	.	.	.	32ee-\JJk	.	.	.	.	.	.	.	.	.	.	.	.	.	.
8F\	.	.	.	32dd\LLL	.	.	8r	8r	.	.	.	.	.	.	.	.	.	.
.	.	.	.	32ff\	.	.	.	.	.	.	.	.	.	.	.	.	.	.
.	.	.	.	32bb-\	.	.	.	.	.	.	.	.	.	.	.	.	.	.
.	.	.	.	32ff\JJJ	.	.	.	.	.	.	.	.	.	.	.	.	.	.
8r	.	.	.	32ee-\LLL	.	.	8B-/ 8d	8f/ 8dd	.	.	.	.	.	.	.	.	.	.
.	.	.	.	32dd\	.	.	.	.	.	.	.	.	.	.	.	.	.	.
.	.	.	.	32cc\	.	.	.	.	.	.	.	.	.	.	.	.	.	.
.	.	.	.	32b-\JJJ	.	.	.	.	.	.	.	.	.	.	.	.	.	.
=8	=8	=8	=8	=8	=8	=8	=8	=8	=8	=8	=8	=8	=8	=8	=8	=8	=8	=8
!!LO:PB:g=original
!	!	!LO:TX:a:t=P:problem=brak zakończenia ligatury	!	!	!	!	!	!	!	!	!	!	!	!	!	!	!	!
8F\	.	2F/ 2f]	.	32a\LLL	.	8F/	8r	8f/ 8a	2r	.	2r	.	.	2r	.	.	2r	.
.	.	.	.	32cc\	.	.	.	.	.	.	.	.	.	.	.	.	.	.
.	.	.	.	32eeX\	.	.	.	.	.	.	.	.	.	.	.	.	.	.
.	.	.	.	32gg\JJJ	.	.	.	.	.	.	.	.	.	.	.	.	.	.
8r	.	.	.	16.ff\LL	.	8r	8c/	8r	.	.	.	.	.	.	.	.	.	.
.	.	.	.	32ee-\JJk	.	.	.	.	.	.	.	.	.	.	.	.	.	.
8F\	.	.	.	(32dd\LLL	.	8F/	8r	8f\ 8dd	.	.	.	.	.	.	.	.	.	.
.	.	.	.	32ff\	.	.	.	.	.	.	.	.	.	.	.	.	.	.
.	.	.	.	32bb-\	.	.	.	.	.	.	.	.	.	.	.	.	.	.
.	.	.	.	32ff\JJJ	.	.	.	.	.	.	.	.	.	.	.	.	.	.
8r	.	.	.	32ee-\LLL	.	8r	8B-/ 8d	8r	.	.	.	.	.	.	.	.	.	.
.	.	.	.	32dd\	.	.	.	.	.	.	.	.	.	.	.	.	.	.
.	.	.	.	32cc\	.	.	.	.	.	.	.	.	.	.	.	.	.	.
.	.	.	.	32b-\JJJ)	.	.	.	.	.	.	.	.	.	.	.	.	.	.
=9	=9	=9	=9	=9	=9	=9	=9	=9	=9	=9	=9	=9	=9	=9	=9	=9	=9	=9
(4F\	.	4.F/ 4.f	.	32a\LLL	.	4.F/	4.A/	4.f/ 4.cc	2r	.	2r	.	.	2r	.	.	2r	.
.	.	.	.	32cc\	.	.	.	.	.	.	.	.	.	.	.	.	.	.
.	.	.	.	32a\	.	.	.	.	.	.	.	.	.	.	.	.	.	.
.	.	.	.	32f\JJJ	.	.	.	.	.	.	.	.	.	.	.	.	.	.
.	.	.	.	32c/LLL	.	.	.	.	.	.	.	.	.	.	.	.	.	.
.	.	.	.	32f/	.	.	.	.	.	.	.	.	.	.	.	.	.	.
.	.	.	.	32c/	.	.	.	.	.	.	.	.	.	.	.	.	.	.
.	.	.	.	32A/JJJ	.	.	.	.	.	.	.	.	.	.	.	.	.	.
16F\LL	.	.	.	8F/	.	.	.	.	.	.	.	.	.	.	.	.	.	.
16E-X\	.	.	.	.	.	.	.	.	.	.	.	.	.	.	.	.	.	.
16D\	.	8r	.	8r	.	8r	8r	8r	.	.	.	.	.	.	.	.	.	.
16C\JJ)	.	.	.	.	.	.	.	.	.	.	.	.	.	.	.	.	.	.
=10	=10	=10	=10	=10	=10	=10	=10	=10	=10	=10	=10	=10	=10	=10	=10	=10	=10	=10
16BB-/LL	.	2r	.	2r	.	16B-\LL	4d/	4f/	2r	.	4d\	.	.	(4f\	Be-	.	2r	.
16D/	.	.	.	.	.	16d\	.	.	.	.	.	.	.	.	.	.	.	.
16F/	.	.	.	.	.	16f\	.	.	.	.	.	.	.	.	.	.	.	.
16D/JJ	.	.	.	.	.	16d\JJ	.	.	.	.	.	.	.	.	.	.	.	.
8BB-/	.	.	.	.	.	8B-\	(>16c#X/LL	16en/LL	.	.	(16c#X\LL	.	.	16en\LL	-ne-	.	.	.
.	.	.	.	.	.	.	16d/	16f/	.	.	16d\	.	.	16f\	.	.	.	.
8r	.	.	.	.	.	8r	16e-/	16g/	.	.	16e-\	.	.	16g\	.	.	.	.
.	.	.	.	.	.	.	16d/JJ	16f/JJ	.	.	16d\JJ)	.	.	16f\JJ)	.	.	.	.
=11	=11	=11	=11	=11	=11	=11	=11	=11	=11	=11	=11	=11	=11	=11	=11	=11	=11	=11
!LO:TX:a:t=P:problem= mixed beam	!	!	!	!	!	!	!	!	!	!	!	!	!	!	!	!	!	!
16BB-/LL	.	2r	.	2r	.	4.B-/	8.d/L	8.f/L	2r	.	8.d\L	.	.	(8.f\L	-di-	.	2r	.
16B-\JJ	.	.	.	.	.	.	.	.	.	.	.	.	.	.	.	.	.	.
8BB-/	.	.	.	.	.	.	.	.	.	.	.	.	.	.	.	.	.	.
.	.	.	.	.	.	.	16B-/Jk)	16d/Jk	.	.	16B-\Jk	.	.	16d\Jk)	.	.	.	.
4r	.	.	.	.	.	.	16d/LL	16f/LL	.	.	16d\	.	.	16f\	-ctus	.	.	.
.	.	.	.	.	.	.	16g/	16b-/	.	.	(16g\LL	.	.	(16b-\LL	qui	.	.	.
.	.	.	.	.	.	8r	16f/	16a/	.	.	16f\	.	.	16a\	.	.	.	.
.	.	.	.	.	.	.	16e-/JJ	16g/JJ	.	.	16e-\JJ)	.	.	16g\JJ)	.	.	.	.
=12	=12	=12	=12	=12	=12	=12	=12	=12	=12	=12	=12	=12	=12	=12	=12	=12	=12	=12
!LO:TX:a:t=P:problem= mixed beam	!	!	!	!	!	!	!	!	!	!	!	!	!	!	!	!	!	!
16BB-/LL	.	2r	.	4r	.	4.B-/	8.d/L	8.f/L	2r	.	8.d\L	.	.	8.f\L	ve-	.	2r	.
16B-\JJ	.	.	.	.	.	.	.	.	.	.	.	.	.	.	.	.	.	.
8BB-/	.	.	.	.	.	.	.	.	.	.	.	.	.	.	.	.	.	.
.	.	.	.	.	.	.	16B-/Jk	16d/Jk	.	.	16B-\Jk	.	.	16d\Jk	.	.	.	.
4r	.	.	.	16r	.	.	16d/LL	16f/LL	.	.	16d\	.	.	16f\	-nit	.	.	.
.	.	.	.	(16b-\LL 16dd	.	.	16B-/	16d/	.	.	16B-\LL	.	.	(16d\LL	qui	.	.	.
.	.	.	.	16cc\ 16ee-	.	8r	16c/	16e-/	.	.	16c\	.	.	16e-\	.	.	.	.
.	.	.	.	16dd\JJ 16ff	.	.	16d/JJ	16f/JJ	.	.	16d\JJ	.	.	16f\JJ	.	.	.	.
=13	=13	=13	=13	=13	=13	=13	=13	=13	=13	=13	=13	=13	=13	=13	=13	=13	=13	=13
8E-\	.	2r	.	8ee-\) 8gg	.	8e-\	16e-/LL	16g/LL	8r	.	8e-\	.	.	8g\)	ve-	.	8r	.
.	.	.	.	.	.	.	16e-/	16g/	.	.	.	.	.	.	.	.	.	.
8r	.	.	.	8r	.	8r	16e-/	16g/	4C/	Be-	4B-\	.	.	4b-\	-nit	.	4gg\	Be-
.	.	.	.	.	.	.	16e-/	16g/	.	.	.	.	.	.	.	.	.	.
8E-\	.	.	.	4r	.	8e-\	16e-/	16g/	.	.	.	.	.	.	.	.	.	.
.	.	.	.	.	.	.	16e-/	16g/	.	.	.	.	.	.	.	.	.	.
8r	.	.	.	.	.	8r	16e-/	16g/	8C/	-ne-	8B-\	.	.	8b-\	qui	.	8gg\	-ne-
.	.	.	.	.	.	.	16e-/JJ	16g/JJ	.	.	.	.	.	.	.	.	.	.
=14	=14	=14	=14	=14	=14	=14	=14	=14	=14	=14	=14	=14	=14	=14	=14	=14	=14	=14
8D\	.	2r	.	2r	.	8d\	16B-/LL	16f/LL	4D\	-di-	4B-\	.	.	4b-\	ve-	.	16ff\LL	-di-
.	.	.	.	.	.	.	16B-/	16f/	.	.	.	.	.	.	.	.	16dd\JJ	.
8r	.	.	.	.	.	8r	16B-/	16f/	.	.	.	.	.	.	.	.	4b-\	-ctus
.	.	.	.	.	.	.	16B-/	16f/	.	.	.	.	.	.	.	.	.	.
8D\	.	.	.	.	.	8d\	16B-/	16f/	8D\	-ctus	8B-\	.	.	8b-\	-nit	.	.	.
.	.	.	.	.	.	.	16B-/	16f/	.	.	.	.	.	.	.	.	.	.
8r	.	.	.	.	.	8r	16B-/	16f/	8D\	qui	8B-\	qui	.	16b-\L	qui	.	8dd\	qui
.	.	.	.	.	.	.	16B-/JJ	16f/JJ	.	.	.	.	.	16a\J	.	.	.	.
*	*	*	*	*	*	*	*Xtremolo	*Xtremolo	*	*	*	*	*	*	*	*	*	*
=15	=15	=15	=15	=15	=15	=15	=15	=15	=15	=15	=15	=15	=15	=15	=15	=15	=15	=15
!!LO:PB:g=original
8E-\	.	2r	.	2r	.	8e-\	8r	8r	4E-\	ve-	4B-\	ve-	.	4g\	ve-	.	32dd\LLL	ve-
.	.	.	.	.	.	.	.	.	.	.	.	.	.	.	.	.	32cc\	.
.	.	.	.	.	.	.	.	.	.	.	.	.	.	.	.	.	32bn\	.
.	.	.	.	.	.	.	.	.	.	.	.	.	.	.	.	.	32cc\JJJ	.
8r	.	.	.	.	.	8r	8B-/	8g/	.	.	.	.	.	.	.	.	[8ee-\	-nit
8E-\	.	.	.	.	.	8E-/	8r	8r	8E-\	-nit	8c\	-nit	.	8g\	-nit	.	16ee-\LL]	.
.	.	.	.	.	.	.	.	.	.	.	.	.	.	.	.	.	(16g\	in
8r	.	.	.	.	.	8r	8g/	8cc\	8E-\	in	8c\	in	.	8g\	in	.	16dd\	.
.	.	.	.	.	.	.	.	.	.	.	.	.	.	.	.	.	16cc\JJ	.
=16	=16	=16	=16	=16	=16	=16	=16	=16	=16	=16	=16	=16	=16	=16	=16	=16	=16	=16
8F\	.	2r	.	2r	.	8F/	8r	8r	8F\	no-	8d\	no-	.	8f\	no-	.	8b-\)	no-
8r	.	.	.	.	.	8r	8d/	8b-\	16F\	-mi-	16d\	-mi-	.	16f\	-mi-	.	16b-\	-mi-
.	.	.	.	.	.	.	.	.	16F\	-ne	16d\	-ne	.	16f\	-ne	.	16b-\	-ne
8FF/	.	.	.	.	.	8F/	8r	8r	8.F\	do-	8.c\	do-	.	8.f\	do-	.	8.a\	do-
8r	.	.	.	.	.	8r	8c/ 8e-	8a/	.	.	.	.	.	.	.	.	.	.
.	.	.	.	.	.	.	.	.	16F\	-mi-	16c\	-mi-	.	16f\	-mi-	.	16a\	-mi-
=17	=17	=17	=17	=17	=17	=17	=17	=17	=17	=17	=17	=17	=17	=17	=17	=17	=17	=17
8BB-/	.	2r	.	8r	.	8B-/	8r	8r	4BB-/	-ni	4d\	-ni	.	4f\	-ni	.	4b-\	-ni
8r	.	.	.	(8dd\	.	8r	8B-/ 8d	8b-\	.	.	.	.	.	.	.	.	.	.
8B-\	.	.	.	32dd\LLL	.	8B-/	8r	8r	4r	.	4r	.	.	4r	.	.	4r	.
.	.	.	.	32cc\	.	.	.	.	.	.	.	.	.	.	.	.	.	.
.	.	.	.	32b-\	.	.	.	.	.	.	.	.	.	.	.	.	.	.
.	.	.	.	32cc\JJJ	.	.	.	.	.	.	.	.	.	.	.	.	.	.
8r	.	.	.	32dd\LLL	.	8r	8f/	8dd\	.	.	.	.	.	.	.	.	.	.
.	.	.	.	32cc\	.	.	.	.	.	.	.	.	.	.	.	.	.	.
.	.	.	.	32dd\	.	.	.	.	.	.	.	.	.	.	.	.	.	.
.	.	.	.	32eeX\JJJ)	.	.	.	.	.	.	.	.	.	.	.	.	.	.
=18	=18	=18	=18	=18	=18	=18	=18	=18	=18	=18	=18	=18	=18	=18	=18	=18	=18	=18
8A\	.	2r	.	16ff\LL	.	8A/	8r	8r	2r	.	2r	.	.	2r	.	.	2r	.
.	.	.	.	32ee-\L	.	.	.	.	.	.	.	.	.	.	.	.	.	.
.	.	.	.	32dd\JJJ	.	.	.	.	.	.	.	.	.	.	.	.	.	.
8r	.	.	.	8cc\	.	8r	8f/	8cc\	.	.	.	.	.	.	.	.	.	.
8A\	.	.	.	(16cc\LL	.	8A/	8r	8r	.	.	.	.	.	.	.	.	.	.
.	.	.	.	16aa\	.	.	.	.	.	.	.	.	.	.	.	.	.	.
8r	.	.	.	16gg\	.	8r	8f/	8cc\	.	.	.	.	.	.	.	.	.	.
.	.	.	.	16ff\JJ)	.	.	.	.	.	.	.	.	.	.	.	.	.	.
=19	=19	=19	=19	=19	=19	=19	=19	=19	=19	=19	=19	=19	=19	=19	=19	=19	=19	=19
8G\	.	2r	.	(16ff\LL	.	8G/	8r	8r	2r	.	2r	.	.	2r	.	.	2r	.
.	.	.	.	16eeX\J	.	.	.	.	.	.	.	.	.	.	.	.	.	.
8r	.	.	.	8gg\J)	.	8r	8en/	8b-\	.	.	.	.	.	.	.	.	.	.
!	!	!	!	!LO:TUP:a:problem=klamra łukowa	!	!	!	!	!	!	!	!	!	!	!	!	!	!
8En\	.	.	.	24gg\LL	.	8En/	8r	8r	.	.	.	.	.	.	.	.	.	.
.	.	.	.	24ff\	.	.	.	.	.	.	.	.	.	.	.	.	.	.
.	.	.	.	24een\JJ	.	.	.	.	.	.	.	.	.	.	.	.	.	.
!	!	!	!	!LO:TUP:a:problem=klamra łukowa	!	!	!	!	!	!	!	!	!	!	!	!	!	!
8r	.	.	.	24dd\LL	.	8r	8c/	8g\ 8b-	.	.	.	.	.	.	.	.	.	.
.	.	.	.	24cc\	.	.	.	.	.	.	.	.	.	.	.	.	.	.
.	.	.	.	24b-\JJ	.	.	.	.	.	.	.	.	.	.	.	.	.	.
=20	=20	=20	=20	=20	=20	=20	=20	=20	=20	=20	=20	=20	=20	=20	=20	=20	=20	=20
16F\LL	.	2r	.	8a\	.	16F/LL	4c/	4f/ 4a	2r	.	2r	.	.	4a\	.	.	(4cc\	Be-
16A\	.	.	.	.	.	16A/	.	.	.	.	.	.	.	.	.	.	.	.
16c\	.	.	.	8r	.	16c/	.	.	.	.	.	.	.	.	.	.	.	.
16A\JJ	.	.	.	.	.	16A/JJ	.	.	.	.	.	.	.	.	.	.	.	.
8F\	.	.	.	4r	.	8F/	4r	4r	.	.	.	.	.	16g#X\LL	.	.	16bn\LL	-ne-
.	.	.	.	.	.	.	.	.	.	.	.	.	.	16a\	.	.	16cc\	.
8r	.	.	.	.	.	8r	.	.	.	.	.	.	.	16b-\	.	.	16dd\	.
.	.	.	.	.	.	.	.	.	.	.	.	.	.	16a\JJ	.	.	16cc\JJ)	.
=21	=21	=21	=21	=21	=21	=21	=21	=21	=21	=21	=21	=21	=21	=21	=21	=21	=21	=21
4.F\	.	2r	.	2r	.	4.F/	4A/	16f/LL	(4A\	Be-	(4c/	Be-	.	16a\LL	.	.	16cc\LL	-di-
.	.	.	.	.	.	.	.	16a/	.	.	.	.	.	16f\JJ	.	.	16a\JJ	.
.	.	.	.	.	.	.	.	16cc/	.	.	.	.	.	8a\	.	.	8cc\	-ctus
.	.	.	.	.	.	.	.	16a/JJ	.	.	.	.	.	.	.	.	.	.
.	.	.	.	.	.	.	4r	8f/	16G#X\LL	-ne-	16Bn/LL	-ne-	.	4r	.	.	4r	.
.	.	.	.	.	.	.	.	.	16A\	.	16c/	.	.	.	.	.	.	.
8r	.	.	.	.	.	8r	.	8r	16B-\	.	16d/	.	.	.	.	.	.	.
.	.	.	.	.	.	.	.	.	16A\JJ)	.	16c/JJ)	.	.	.	.	.	.	.
=22	=22	=22	=22	=22	=22	=22	=22	=22	=22	=22	=22	=22	=22	=22	=22	=22	=22	=22
!!LO:PB:g=original
4.F\	.	2r	.	2r	.	4.F/	16A/LL	16c/LL	16A\LL	-di-	(16c\LL	-di-	.	4r	.	.	(4ff\	Be-
.	.	.	.	.	.	.	16c/	16f/	16F\JJ	.	16A\JJ)	.	.	.	.	.	.	.
.	.	.	.	.	.	.	16f/	16a/	8A\	-ctus	8c\	-ctus	.	.	.	.	.	.
.	.	.	.	.	.	.	16c/JJ	16f/JJ	.	.	.	.	.	.	.	.	.	.
.	.	.	.	.	.	.	8A/	8c/	8r	.	8r	.	.	8r	.	.	16ff\LL	-ne-
.	.	.	.	.	.	.	.	.	.	.	.	.	.	.	.	.	16een\	.
8r	.	.	.	.	.	8r	8r	8r	8F\	qui	8c\	qui	.	8a\	qui	.	16dd\	.
.	.	.	.	.	.	.	.	.	.	.	.	.	.	.	.	.	16cc\JJ)	.
=23	=23	=23	=23	=23	=23	=23	=23	=23	=23	=23	=23	=23	=23	=23	=23	=23	=23	=23
8En\	.	2r	.	2r	.	8E-/	8r	8r	8E-\	ve-	8c\	ve-	.	8g\	ve-	.	16cc\LL	-di-
.	.	.	.	.	.	.	.	.	.	.	.	.	.	.	.	.	16b-\JJ	.
8r	.	.	.	.	.	8r	8g/	8c/ 8b-	16E-\	-nit	16c\	-nit	.	16g\	-nit	.	16b-\	-ctus
.	.	.	.	.	.	.	.	.	16r	.	16r	.	.	16r	.	.	16b-\	qui
8F\	.	.	.	.	.	8F/	8r	8r	8r	.	8r	.	.	8r	.	.	16b-\LL	ve-
.	.	.	.	.	.	.	.	.	.	.	.	.	.	.	.	.	16a\JJ	.
8r	.	.	.	.	.	8r	8f/ 8a	8c/ 8a	8F\	in	8c\	in	.	8a\	in	.	16a\	-nit
.	.	.	.	.	.	.	.	.	.	.	.	.	.	.	.	.	16a\	in
=24	=24	=24	=24	=24	=24	=24	=24	=24	=24	=24	=24	=24	=24	=24	=24	=24	=24	=24
8B-\L	.	2r	.	2r	.	8B-/L	8g/L	4.dd\	8B-\	no-	8d\	no-	.	8g\	no-	.	([4dd\	no-
8A\	.	.	.	.	.	8A/	8f#X/ 8a	.	8A\	-mi-	8c\	-mi-	.	8f#X\	-mi-	.	.	.
8G\J	.	.	.	.	.	8G/J	8g/J 8b-	.	8G\	-ne	8B-\	-ne	.	8g\	-ne	.	16dd\LL]	.
.	.	.	.	.	.	.	.	.	.	.	.	.	.	.	.	.	16b-\JJ	.
8r	.	.	.	.	.	8r	8r	8r	8r	.	8r	.	.	8r	.	.	16a\)	-mi-
.	.	.	.	.	.	.	.	.	.	.	.	.	.	.	.	.	16g\	-ne
=25	=25	=25	=25	=25	=25	=25	=25	=25	=25	=25	=25	=25	=25	=25	=25	=25	=25	=25
8A\L	.	2r	.	2r	.	8A/L	8fn/L 8a	4.cc\	8A\	do-	8c\	do-	.	8f\	do-	.	(4cc\	do-
8G\	.	.	.	.	.	8G/	8en/ 8b-	.	8G\	-mi-	8B-\	-mi-	.	8en\	-mi-	.	.	.
8F\J	.	.	.	.	.	8F/J	8f/J 8a	.	8F\	-ni	8A\	-ni	.	8f\	-ni	.	16cc\LL	.
.	.	.	.	.	.	.	.	.	.	.	.	.	.	.	.	.	16a\JJ	.
8E-X\	.	.	.	.	.	8E-X/	8f/ 8a	8r	8r	.	8r	.	.	8r	.	.	16g\)	-mi-
.	.	.	.	.	.	.	.	.	.	.	.	.	.	.	.	.	16f\	-ni
=26	=26	=26	=26	=26	=26	=26	=26	=26	=26	=26	=26	=26	=26	=26	=26	=26	=26	=26
4D/	.	2r	.	2r	.	4D/	(4f/	8.b-\L	8r	.	8r	.	.	8r	.	.	(16ff\LL	Be-
.	.	.	.	.	.	.	.	.	.	.	.	.	.	.	.	.	16a\	.
.	.	.	.	.	.	.	.	.	16D\	Be-	16F/	Be-	.	16f\	Be-	.	16b-\	-ne-
.	.	.	.	.	.	.	.	16bn\Jk	16D\	-ne-	16F/	-ne-	.	16f\	-ne-	.	16bn\JJ	.
4C/	.	.	.	.	.	4C/	4e-/)	8.cc\L	4C\	-di-	4G/	-di-	.	(8e-\L	-di-	.	&(8.cc\L	-di-
.	.	.	.	.	.	.	.	.	.	.	.	.	.	8g\J)	.	.	.	.
.	.	.	.	.	.	.	.	16g\Jk 16b-X	.	.	.	.	.	.	.	.	16b-\Jk)	.
=27	=27	=27	=27	=27	=27	=27	=27	=27	=27	=27	=27	=27	=27	=27	=27	=27	=27	=27
*	*	*	*	*	*	*	*	*^	*	*	*	*	*	*	*	*	*	*
4.C#X/	.	2r	.	2r	.	4.C#X/	4.e-/	4.a/	4.g\	8C#X\	-ctus	8A\	-ctus	.	8g\	-ctus	.	8a\&)	-ctus
.	.	.	.	.	.	.	.	.	.	8C#\	qui	8e-\	qui	.	8g\	qui	.	8a\	qui
.	.	.	.	.	.	.	.	.	.	8C#\	ve-	8e-\	ve-	.	8g\	ve-	.	8a\	ve-
8r	.	.	.	.	.	8r	8r	8r	8r	16C#\	-nit	16e-\	-nit	.	16g\	-nit	.	16a\	-nit
.	.	.	.	.	.	.	.	.	.	16C#\	in	16e-\	in	.	16g\	in	.	16a\	in
*	*	*	*	*	*	*	*	*v	*v	*	*	*	*	*	*	*	*	*	*
=28	=28	=28	=28	=28	=28	=28	=28	=28	=28	=28	=28	=28	=28	=28	=28	=28	=28	=28
8D\	.	2r	.	2r	.	8D/	8A/ 8f	8f/ 8a	8.D\	no-	8.d\	no-	.	8.f\	no-	.	8.a\	no-
8r	.	.	.	.	.	8r	8r	8r	.	.	.	.	.	.	.	.	.	.
.	.	.	.	.	.	.	.	.	16D\	-mi-	16d\	-mi-	.	16f\	-mi-	.	16b-\	-mi-
4r	.	.	.	.	.	4r	4r	4r	8D\	-ne	8d\	-ne	.	8f\	-ne	.	8a\	-ne
.	.	.	.	.	.	.	.	.	8Cn^\	in	8e-X^\	in	.	8f^\	in	.	8a\	in
=29	=29	=29	=29	=29	=29	=29	=29	=29	=29	=29	=29	=29	=29	=29	=29	=29	=29	=29
!!LO:PB:g=original
8BB-/	.	2r	.	2r	.	8B-/	8r	8r	8.BB-/	no-	8.d\L	no-	.	8.f\L	no-	.	(4ff\	no-
8r	.	.	.	.	.	8r	8f/	8ff\	.	.	.	.	.	.	.	.	.	.
.	.	.	.	.	.	.	.	.	16BB-/	-mi-	16d\Jk	-mi-	.	16f\Jk	-mi-	.	.	.
8BB-/	.	.	.	.	.	8B-/	8r	8r	8BB-/	-ne	8d\	-ne	.	8g\	-ne	.	16ff\LL	-mi-
.	.	.	.	.	.	.	.	.	.	.	.	.	.	.	.	.	16dd\	.
8r	.	.	.	.	.	8r	8g/	8dd\	8r	.	8r	.	.	8r	.	.	16b-\	-ne
.	.	.	.	.	.	.	.	.	.	.	.	.	.	.	.	.	16g\JJ)	.
=30	=30	=30	=30	=30	=30	=30	=30	=30	=30	=30	=30	=30	=30	=30	=30	=30	=30	=30
8C/	.	(4f\ 4a	.	8r	.	8c\	(16A/LL	8r	4C/	do-	4c\	do-	.	4a\	do-	.	4.cc\	Do-
.	.	.	.	.	.	.	16c/	.	.	.	.	.	.	.	.	.	.	.
8r	.	.	.	8a\ 8cc	.	8r	16f/	8cc\	.	.	.	.	.	.	.	.	.	.
.	.	.	.	.	.	.	16c/JJ	.	.	.	.	.	.	.	.	.	.	.
8C/	.	4c\ 4g	.	8r	.	8c\	16G/LL	8r	4C/	-mi-	4B-\	-mi-	.	4g\	-mi-	.	.	.
.	.	.	.	.	.	.	16B-/	.	.	.	.	.	.	.	.	.	.	.
8r	.	.	.	8g\ 8eeX	.	8r	16c/	8en/	.	.	.	.	.	.	.	.	8en/	-mi-
.	.	.	.	.	.	.	16B-/JJ)	.	.	.	.	.	.	.	.	.	.	.
=31	=31	=31	=31	=31	=31	=31	=31	=31	=31	=31	=31	=31	=31	=31	=31	=31	=31	=31
*	*	*	*	*^	*	*	*	*	*	*	*	*	*	*	*	*	*	*
*	*	*	*	*	*2\right	*	*	*	*	*	*	*	*	*	*	*	*	*	*
8F\	.	8A/) 8f	.	32ff/LLL	2a\	.	2A\ 2c	16A/LL	8r	4F\	-ni	4A\	-ni	.	4f\	-ni	.	4f/	-ni
.	.	.	.	32aa/	.	.	.	.	.	.	.	.	.	.	.	.	.	.	.
.	.	.	.	32ff/	.	.	.	16c/	.	.	.	.	.	.	.	.	.	.	.
.	.	.	.	32cc/JJJ	.	.	.	.	.	.	.	.	.	.	.	.	.	.	.
8r	.	4F/ 4f	.	32a/LLL	.	.	.	16f/	8f/	.	.	.	.	.	.	.	.	.	.
.	.	.	.	32ff/	.	.	.	.	.	.	.	.	.	.	.	.	.	.	.
.	.	.	.	32cc/	.	.	.	16c/JJ	.	.	.	.	.	.	.	.	.	.	.
.	.	.	.	32a/JJJ	.	.	.	.	.	.	.	.	.	.	.	.	.	.	.
*	*	*	*	*	*	*	*	*rep	*	*	*	*	*	*	*	*	*	*	*
!	!	!	!	!LO:TX:a:t=P:problem= mixed beam	!	!	!	!	!	!	!	!	!	!	!	!	!	!	!
8F\	.	.	.	(16f/LL	.	.	.	16A/LL	8r	8r	.	8r	.	.	8r	.	.	8r	.
.	.	.	.	16ff\	.	.	.	16c/	.	.	.	.	.	.	.	.	.	.	.
8r	.	8F/ 8f	.	16eeX\	.	.	.	16f/	8a/	8F\	.	8c\	.	.	8f\	.	.	8a\	in
.	.	.	.	16ee-\JJ)	.	.	.	16c/JJ	.	.	.	.	.	.	.	.	.	.	.
*	*	*	*	*	*	*	*	*Xrep	*	*	*	*	*	*	*	*	*	*	*
=32	=32	=32	=32	=32	=32	=32	=32	=32	=32	=32	=32	=32	=32	=32	=32	=32	=32	=32	=32
!	!	!	!LO:DY:rj	!	!	!	!	!	!	!	!	!	!	!	!	!	!	!	!
8F\	.	2F/ 2f	f	32dd/LLL	2b-\	.	4B-\ 4d	(>16d/LL	8r	8F\	.	8d\	.	.	8f\	.	.	8b-\	no-
.	.	.	.	32b-/	.	.	.	.	.	.	.	.	.	.	.	.	.	.	.
.	.	.	.	32f/	.	.	.	16f/	.	.	.	.	.	.	.	.	.	.	.
.	.	.	.	32d/JJJ	.	.	.	.	.	.	.	.	.	.	.	.	.	.	.
!	!	!	!	!LO:TX:a:t=P:problem= mixed beam	!	!	!	!	!	!	!	!	!	!	!	!	!	!	!
!	!	!	!	!LO:N:vis=8	!	!	!	!	!	!	!	!	!	!	!	!	!	!	!
8r	.	.	.	8.B-/L	.	.	.	16b-/	8b-\	16F\	.	16d\	.	.	16f\	.	.	16b-\	-mi-
.	.	.	.	.	.	.	.	16f/JJ	.	16F\	.	16d\	.	.	16b-\	.	.	16b-\	-ne
8F\	.	.	.	.	.	.	4G/ 4B-	16en/LL	8r	8.F\	.	8.en\	.	.	8.g\	.	.	8.b-\	do-
.	.	.	.	32bb-\LL	.	.	.	16g/	.	.	.	.	.	.	.	.	.	.	.
.	.	.	.	32aa\JJJ	.	.	.	.	.	.	.	.	.	.	.	.	.	.	.
8r	.	.	.	32gg\LLL	.	.	.	16B-/	8b-\	.	.	.	.	.	.	.	.	.	.
.	.	.	.	32ff\	.	.	.	.	.	.	.	.	.	.	.	.	.	.	.
.	.	.	.	32eeX\	.	.	.	16G/JJ)	.	16F\	.	16e\	.	.	16g\	.	.	16a\	-mi-
.	.	.	.	32gg\JJJ	.	.	.	.	.	.	.	.	.	.	.	.	.	.	.
=33	=33	=33	=33	=33	=33	=33	=33	=33	=33	=33	=33	=33	=33	=33	=33	=33	=33	=33	=33
8F\	.	8F/ 8f	.	32ff/LLL	2a\	.	2A/ 2c	(16A/LL	8r	4F\	.	4f\	.	.	4f\	.	.	4a\	-ni
.	.	.	.	32aa/	.	.	.	.	.	.	.	.	.	.	.	.	.	.	.
.	.	.	fp	32ff/	.	.	.	16c/	.	.	.	.	.	.	.	.	.	.	.
.	.	.	.	32cc/JJJ	.	.	.	.	.	.	.	.	.	.	.	.	.	.	.
8r	.	4F/ 4f	.	32a/LLL	.	.	.	16f/	8a/	.	.	.	.	.	.	.	.	.	.
.	.	.	.	32ff/	.	.	.	.	.	.	.	.	.	.	.	.	.	.	.
.	.	.	.	32cc/	.	.	.	16c/JJ)	.	.	.	.	.	.	.	.	.	.	.
.	.	.	.	32a/JJJ	.	.	.	.	.	.	.	.	.	.	.	.	.	.	.
*	*	*	*	*	*	*	*	*rep	*	*	*	*	*	*	*	*	*	*	*
!	!	!	!	!LO:TX:a:t=P:problem= mixed beam	!	!	!	!	!	!	!	!	!	!	!	!	!	!	!
8F\	.	.	.	16f/LL	.	.	.	(16A/LL	8r	8r	.	8r	.	.	8r	.	.	8r	.
.	.	.	.	16ff\	.	.	.	16c/	.	.	.	.	.	.	.	.	.	.	.
8r	.	8F/ 8f	.	16eeX\	.	.	.	16f/	8a/	8F\	.	8c\	.	.	8f\	.	.	8a\	in
.	.	.	.	16ee-\JJ	.	.	.	16c/JJ)	.	.	.	.	.	.	.	.	.	.	.
*	*	*	*	*	*	*	*	*Xrep	*	*	*	*	*	*	*	*	*	*	*
=34	=34	=34	=34	=34	=34	=34	=34	=34	=34	=34	=34	=34	=34	=34	=34	=34	=34	=34	=34
8F\	.	2F/ 2f	.	32dd/LLL	2b-\	.	4B-\ 4d	(16d/LL	8r	8F\	.	8d\	.	.	8f\	.	.	8b-\	no-
.	.	.	.	32b-/	.	.	.	.	.	.	.	.	.	.	.	.	.	.	.
.	.	.	.	32f/	.	.	.	16f/	.	.	.	.	.	.	.	.	.	.	.
.	.	.	.	32d/JJJ	.	.	.	.	.	.	.	.	.	.	.	.	.	.	.
!	!	!	!	!LO:TX:a:t=P:problem= mixed beam	!	!	!	!	!	!	!	!	!	!	!	!	!	!	!
!	!	!	!	!LO:N:vis=8	!	!	!	!	!	!	!	!	!	!	!	!	!	!	!
8r	.	.	.	8.B-/L	.	.	.	16b-/	8b-\	16F\	.	16d\	.	.	16f\	.	.	16b-\	-mi-
.	.	.	.	.	.	.	.	16f/JJ	.	16F\	.	16d\	.	.	16b-\	.	.	16b-\	-ne
8F\	.	.	.	.	.	.	4G/ 4B-	16en/LL	8r	8.F\	.	8.en\	.	.	8.g\	.	.	8.b-\	do-
.	.	.	.	32bb-\LL	.	.	.	16g/	.	.	.	.	.	.	.	.	.	.	.
.	.	.	.	32aa\JJJ	.	.	.	.	.	.	.	.	.	.	.	.	.	.	.
8r	.	.	.	(32gg\LLL	.	.	.	16B-/	8b-\	.	.	.	.	.	.	.	.	.	.
.	.	.	.	32ff\	.	.	.	.	.	.	.	.	.	.	.	.	.	.	.
.	.	.	.	32eeX\	.	.	.	16G/JJ)	.	16F\	.	16e\	.	.	16g\	.	.	16b-\	-mi-
.	.	.	.	32gg\JJJ)	.	.	.	.	.	.	.	.	.	.	.	.	.	.	.
=35	=35	=35	=35	=35	=35	=35	=35	=35	=35	=35	=35	=35	=35	=35	=35	=35	=35	=35	=35
!	!	!LO:TX:t=P:problem=brak początku ligatury	!	!	!	!	!	!	!	!	!	!	!	!	!	!	!	!	!
8F\	.	2F/ [2f	fp	(2ff/	(2a\	.	2F/ 2A	16A/LL	8r	8F\	.	8f\L	.	.	8f\	.	.	8a\	-ni
.	.	.	.	.	.	.	.	16c/	.	.	.	.	.	.	.	.	.	.	.
8r	.	.	.	.	.	.	.	16f/	8a/	8r	.	8f\J	Be-	.	8r	.	.	8a\	Be-
.	.	.	.	.	.	.	.	16c/JJ	.	.	.	.	.	.	.	.	.	.	.
*	*	*	*	*	*	*	*	*rep	*	*	*	*	*	*	*	*	*	*	*
8F\	.	.	.	.	.	.	.	16A/LL	8r	4r	.	(16e-\LL	-ne-	.	4r	.	.	(16g#X\LL	-ne
.	.	.	.	.	.	.	.	16c/	.	.	.	16f\	.	.	.	.	.	16a\	.
8r	.	.	.	.	.	.	.	16f/	8a/	.	.	16g\	.	.	.	.	.	16b-\	.
.	.	.	.	.	.	.	.	16c/JJ	.	.	.	16f\JJ)	.	.	.	.	.	16a\JJ)	.
*	*	*	*	*	*	*	*	*Xrep	*	*	*	*	*	*	*	*	*	*	*
=36	=36	=36	=36	=36	=36	=36	=36	=36	=36	=36	=36	=36	=36	=36	=36	=36	=36	=36	=36
!!LO:PB:g=original
!	!	!	!	!	!LO:TX:b:t=P:problem=brak zakończenia łuku	!	!	!	!	!	!	!	!	!	!	!	!	!	!
8F\	.	2F/ 2f]	.	[2ee-X/)	2b-\)	.	2G/ 2B-	16B-/LL	8r	4B-\	Be-	4e-\	.	.	4g\	Be-	.	4b-\	-di-
.	.	.	.	.	.	.	.	16en/	.	.	.	.	.	.	.	.	.	.	.
8r	.	.	.	.	.	.	.	16g/	8b-\	.	.	.	.	.	.	.	.	.	.
.	.	.	.	.	.	.	.	16e/JJ	.	.	.	.	.	.	.	.	.	.	.
*	*	*	*	*	*	*	*	*rep	*	*	*	*	*	*	*	*	*	*	*
8F\	.	.	.	.	.	.	.	16B-/LL	8r	(16A\LL	-ne-	16e-\	.	.	16f#X\LL	-ne-	.	16b-\	-ctus
.	.	.	.	.	.	.	.	16en/	.	16B-\	.	16r	.	.	16g\	.	.	16r	.
8r	.	.	.	.	.	.	.	16g/	8b-\	16c\	.	8r	.	.	16a\	.	.	8r	.
.	.	.	.	.	.	.	.	16e/JJ	.	16Bn\JJ)	.	.	.	.	16g#X\JJ	.	.	.	.
*	*	*	*	*	*	*	*	*Xrep	*	*	*	*	*	*	*	*	*	*	*
=37	=37	=37	=37	=37	=37	=37	=37	=37	=37	=37	=37	=37	=37	=37	=37	=37	=37	=37	=37
8F\	.	2F/ 2f	.	2ee-X/_	2cc\	.	2A/ 2c	16c/LL	8r	8c\	-di-	2r	.	.	8a\	-di-	.	4ee-X\	Be-
.	.	.	.	.	.	.	.	16e-X/	.	.	.	.	.	.	.	.	.	.	.
8r	.	.	.	.	.	.	.	16a/	8cc\	16c\	-ctus	.	.	.	16a\	-ctus	.	.	.
.	.	.	.	.	.	.	.	16e-/JJ	.	16r	.	.	.	.	16r	.	.	.	.
*	*	*	*	*	*	*	*	*rep	*	*	*	*	*	*	*	*	*	*	*
8F\	.	.	.	.	.	.	.	16c/LL	8r	4r	.	.	.	.	4r	.	.	16dd\LL	-ne-
.	.	.	.	.	.	.	.	16e-X/	.	.	.	.	.	.	.	.	.	16ee-\	.
8r	.	.	.	.	.	.	.	16a/	8cc\	.	.	.	.	.	.	.	.	16ff\	.
.	.	.	.	.	.	.	.	16e-/JJ	.	.	.	.	.	.	.	.	.	16ee-\JJ	.
*	*	*	*	*	*	*	*	*Xrep	*	*	*	*	*	*	*	*	*	*	*
=38	=38	=38	=38	=38	=38	=38	=38	=38	=38	=38	=38	=38	=38	=38	=38	=38	=38	=38	=38
*2\right	*	*	*	*	*	*	*	*	*	*	*	*	*	*	*	*	*	*	*
!	!	!	!LO:DY:rj	!	!	!LO:DY:rj	!	!	!	!	!	!	!	!	!	!	!	!	!
2F;\	.	4F/ 4f	pp	4ee-X/]	4a\	pp	2F;/	2A;/	2c;/ 2e-X	2r;	.	2r;	.	.	2r;	.	.	8.ee-X\L	-di-
.	.	.	.	.	.	.	.	.	.	.	.	.	.	.	.	.	.	16cc\Jk	.
*	*	*	*	*v	*v	*	*	*	*	*	*	*	*	*	*	*	*	*	*
.	.	4r;	.	4r;	.	.	.	.	.	.	.	.	.	.	.	.	8a;\	-ctus
.	.	.	.	.	.	.	.	.	.	.	.	.	.	.	.	.	8r	.
=39	=39	=39	=39	=39	=39	=39	=39	=39	=39	=39	=39	=39	=39	=39	=39	=39	=39	=39
(16BB-/LL	.	2r	.	2r	.	(16B-\LL	(4d/	(4f/	2r	.	4d\	Be-	.	4f\	Be-	.	2r	.
16D/	.	.	.	.	.	16d\	.	.	.	.	.	.	.	.	.	.	.	.
16F/	.	.	.	.	.	16f\	.	.	.	.	.	.	.	.	.	.	.	.
16D/JJ	.	.	.	.	.	16d\JJ	.	.	.	.	.	.	.	.	.	.	.	.
8BB-/)	.	.	.	.	.	8B-/)	16c#X/LL	16en/LL	.	.	16c#X\LL	-ne-	.	16en\LL	-ne-	.	.	.
.	.	.	.	.	.	.	16d/	16f/	.	.	16d\	.	.	16f\	.	.	.	.
8r	.	.	.	.	.	8r	16e-/	16g/	.	.	16e-\	.	.	16g\	.	.	.	.
.	.	.	.	.	.	.	16d/JJ)	16f/JJ)	.	.	16d\JJ	.	.	16f\JJ	.	.	.	.
=40	=40	=40	=40	=40	=40	=40	=40	=40	=40	=40	=40	=40	=40	=40	=40	=40	=40	=40
!LO:TX:a:t=P:problem= mixed beam	!	!	!	!	!	!	!	!	!	!	!	!	!	!	!	!	!	!
16BB-/LL	.	2r	.	2r	.	4.B-/	8.d/L	8.f/L	2r	.	8.d\L	-di-	.	8.f\L	-di-	.	2r	.
16B-\JJ	.	.	.	.	.	.	.	.	.	.	.	.	.	.	.	.	.	.
8BB-/	.	.	.	.	.	.	.	.	.	.	.	.	.	.	.	.	.	.
.	.	.	.	.	.	.	16B-/Jk	16d/Jk	.	.	16B-\Jk	.	.	16d\Jk	.	.	.	.
4r	.	.	.	.	.	.	16d/LL	16f/LL	.	.	16d\	-ctus	.	16f\	-ctus	.	.	.
.	.	.	.	.	.	.	16g/	16b-/	.	.	(16g\LL	qui	.	(16b-\LL	qui	.	.	.
.	.	.	.	.	.	8r	16f/	16a/	.	.	16f\	.	.	16a\	.	.	.	.
.	.	.	.	.	.	.	16e-/JJ	16g/JJ	.	.	16e-\JJ)	.	.	16g\JJ)	.	.	.	.
=41	=41	=41	=41	=41	=41	=41	=41	=41	=41	=41	=41	=41	=41	=41	=41	=41	=41	=41
!LO:TX:a:t=P:problem= mixed beam	!	!	!	!	!	!	!LO:N:vis=8	!	!	!	!	!	!	!	!	!	!	!
16BB-/LL	.	2r	.	4r	.	4.B-/	8.d/L	8.f/L	2r	.	8.d\L	ve-	.	8.f\L	ve-	.	2r	.
16B-\JJ	.	.	.	.	.	.	.	.	.	.	.	.	.	.	.	.	.	.
8BB-/	.	.	.	.	.	.	.	.	.	.	.	.	.	.	.	.	.	.
.	.	.	.	.	.	.	16B-/Jk	16d/Jk	.	.	16B-\Jk	.	.	16d\Jk	.	.	.	.
4r	.	.	.	16r	.	.	16d/LL	16f/LL	.	.	16d\	-nit	.	16f\	-nit	.	.	.
!	!	!	!	!	!	!	!	!	!	!	!	!	!LO:DY:a	!	!	!LO:DY:a	!	!
.	.	.	.	16b-\LL 16dd	.	.	16B-/	16d/	.	.	(16B-\LL	qui	<	(16d\LL	qui	<	.	.
.	.	.	.	16cc\ 16ee-	.	8r	16c/	16e-/	.	.	16c\	.	.	16e-\	.	.	.	.
.	.	.	.	16dd\JJ 16ff	.	.	16d/JJ	16f/JJ	.	.	16d\JJ)	.	[[	16f\JJ)	.	[[	.	.
=42	=42	=42	=42	=42	=42	=42	=42	=42	=42	=42	=42	=42	=42	=42	=42	=42	=42	=42
*	*	*	*	*	*	*	*tremolo	*tremolo	*	*	*	*	*	*	*	*	*	*
8E-\	.	2r	.	8ee-\ 8gg	.	8e-\	16e-/LL	16g/LL	8r	.	8e-\	ve-	.	8g\	ve-	.	8r	.
.	.	.	.	.	.	.	16e-/	16g/	.	.	.	.	.	.	.	.	.	.
8r	.	.	.	8r	.	8r	16e-/	16g/	4E-\	Be-	4B-\	-nit	.	4b-\	-nit	.	4gg\	-Be-
.	.	.	.	.	.	.	16e-/	16g/	.	.	.	.	.	.	.	.	.	.
8E-\	.	.	.	4r	.	8e-\	16e-/	16g/	.	.	.	.	.	.	.	.	.	.
.	.	.	.	.	.	.	16e-/	16g/	.	.	.	.	.	.	.	.	.	.
8r	.	.	.	.	.	8r	16e-/	16g/	8E-\	-ne-	8B-\	qui	.	8b-\	qui	.	8gg\	-ne
.	.	.	.	.	.	.	16e-/JJ	16g/JJ	.	.	.	.	.	.	.	.	.	.
=43	=43	=43	=43	=43	=43	=43	=43	=43	=43	=43	=43	=43	=43	=43	=43	=43	=43	=43
!!LO:PB:g=original
8D\	.	2r	.	2r	.	8d\	16B-/LL	16f/LL	4D\	-di-	4B-\	ve-	.	4b-\	ve-	.	16ff\LL	-di-
.	.	.	.	.	.	.	16B-/	16f/	.	.	.	.	.	.	.	.	16dd\JJ	.
8r	.	.	.	.	.	8r	16B-/	16f/	.	.	.	.	.	.	.	.	4b-\	-ctus
.	.	.	.	.	.	.	16B-/	16f/	.	.	.	.	.	.	.	.	.	.
8D\	.	.	.	.	.	8d\	16B-/	16f/	8D\	-ctus	8B-\	-nit	.	8b-\	-nit	.	.	.
.	.	.	.	.	.	.	16B-/	16f/	.	.	.	.	.	.	.	.	.	.
8r	.	.	.	.	.	8r	16B-/	16f/	8D\	qui	8B-\	qui	.	16b-\L	qui	.	8dd\	qui
.	.	.	.	.	.	.	16B-/JJ	16f/JJ	.	.	.	.	.	16a\J	.	.	.	.
=44	=44	=44	=44	=44	=44	=44	=44	=44	=44	=44	=44	=44	=44	=44	=44	=44	=44	=44
8E-\	.	2r	.	2r	.	8e-\	8r	8r	4E-\	ve-	4B-\	ve-	.	4g\	ve-	.	32dd\LLL	ve-
.	.	.	.	.	.	.	.	.	.	.	.	.	.	.	.	.	32cc\	.
.	.	.	.	.	.	.	.	.	.	.	.	.	.	.	.	.	32bn\	.
.	.	.	.	.	.	.	.	.	.	.	.	.	.	.	.	.	32cc\JJJ	.
8r	.	.	.	.	.	8r	8B-/	8g/	.	.	.	.	.	.	.	.	8ee-\	-nit
8E-\	.	.	.	.	.	8E-/	8r	8r	8E-\	-nit	8c\	-nit	.	8g\	-nit	.	(16ee-\LL	.
.	.	.	.	.	.	.	.	.	.	.	.	.	.	.	.	.	16g\	in
8r	.	.	.	.	.	8r	8g/	8cc\	8E-\	in	8c\	in	.	8g\	in	.	16dd\	.
.	.	.	.	.	.	.	.	.	.	.	.	.	.	.	.	.	16cc\JJ)	.
=45	=45	=45	=45	=45	=45	=45	=45	=45	=45	=45	=45	=45	=45	=45	=45	=45	=45	=45
8F\	.	2r	.	2r	.	8F/	8r	8r	8F\	no-	8d\	no-	.	8f\	no-	.	8b-\	no-
8r	.	.	.	.	.	8r	8B-/ 8d	8b-\	16F\	-mi-	16d\	-mi-	.	16f\	-mi-	.	16b-\	-mi-
.	.	.	.	.	.	.	.	.	16F\	-ne	16d\	-ne	.	16f\	-ne	.	16b-\	-ne
8F\	.	.	.	.	.	8F/	8r	8r	8.F\	do-	8.c\	do-	.	8.f\	do-	.	8.a\	do-
8r	.	.	.	.	.	8r	8c/ 8e-	8a/	.	.	.	.	.	.	.	.	.	.
.	.	.	.	.	.	.	.	.	16F\	-mi-	16c\	-mi-	.	16f\	-mi-	.	16a\	-mi-
=46	=46	=46	=46	=46	=46	=46	=46	=46	=46	=46	=46	=46	=46	=46	=46	=46	=46	=46
8BB-/	.	2r	.	2r	.	4.D/ 4.B-	(>16B-/LL	8r	8BB-/	-ni	4d\	-ni	.	4f\	-ni	.	4b-\	-ni
.	.	.	.	.	.	.	16d/	.	.	.	.	.	.	.	.	.	.	.
8r	.	.	.	.	.	.	16f/	8b-\	8B-\	qui	.	.	.	.	.	.	.	.
.	.	.	.	.	.	.	16d/JJ	.	.	.	.	.	.	.	.	.	.	.
8BB-/	.	.	.	.	.	.	16B-/LL	8r	(>4B-\	ve-	8r	.	.	8r	.	.	8r	.
.	.	.	.	.	.	.	16a-X/	.	.	.	.	.	.	.	.	.	.	.
8r	.	.	.	.	.	8F/ 8A-X	16f/	8dd\	.	.	8d\	.	.	8f\	.	.	8b-\	qui
.	.	.	.	.	.	.	16d/JJ)	.	.	.	.	.	.	.	.	.	.	.
=47	=47	=47	=47	=47	=47	=47	=47	=47	=47	=47	=47	=47	=47	=47	=47	=47	=47	=47
*	*	*	*	*	*	*^	*	*	*	*	*	*	*	*	*	*	*	*
8BB-/	.	4r	.	4r	.	8G/L	8D\L	(16g/LL	16ee-\LL	8BB-/)	-nit	8e-\L	.	.	8g\L	.	.	(4ee-\	ve-
.	.	.	.	.	.	.	.	16e-/	16g\	.	.	.	.	.	.	.	.	.	.
8r	.	.	.	.	.	8F/J	8F\	16c/	16ee-\	8BB-/	in	8c\J	.	.	8an\J	.	.	.	.
.	.	.	.	.	.	.	.	16f/JJ	16an\JJ	.	.	.	.	.	.	.	.	.	.
8BB-/	.	8r	.	8r	.	8B-/L	8D\	16d/LL	(16b-\LL	8.BB-/	no-	8B-\	.	.	8b-\	.	.	8dd\)	nit
.	.	.	.	.	.	.	.	16a-X/)	16ff\	.	.	.	.	.	.	.	.	.	.
*	*	*^	*	*^	*	*	*	*	*	*	*	*	*	*	*	*	*	*	*
8r	.	8b-/	8b-\	.	8dd/	8b-\	.	8A-X/J	8F\J	16f/	16dd\	.	.	8d\	.	.	8f\	.	.	8b-\	qui
.	.	.	.	.	.	.	.	.	.	16d/JJ	16b-\JJ)	16BB-/	-mi-	.	.	.	.	.	.	.	.
=48	=48	=48	=48	=48	=48	=48	=48	=48	=48	=48	=48	=48	=48	=48	=48	=48	=48	=48	=48	=48	=48
8BB-/	.	4.b-/	4.b-\	.	4ee-/	8g\L	.	8G/L	8E-\L	16g/LL	16ee-\LL	8BB-/	-ne	8e-\L	.	.	8g\L	.	.	4ee-\	ve-
.	.	.	.	.	.	.	.	.	.	16e-/	16g\	.	.	.	.	.	.	.	.	.	.
8r	.	.	.	.	.	8a\J	.	8F/J	8F\J	16c/	16ee-\	8BB-/	in	8c\J	.	.	8an\J	.	.	.	.
.	.	.	.	.	.	.	.	.	.	16f/JJ	16an\JJ	.	.	.	.	.	.	.	.	.	.
*	*	*	*	*	*	*	*	*v	*v	*	*	*	*	*	*	*	*	*	*	*	*
8BB-/L	.	.	.	.	8dd/	8b-\	.	8B-/L	16B-/LL	(16b-\LL	8.BB-/	no-	8B-\	.	.	8b-\	.	.	8dd\	-nit
.	.	.	.	.	.	.	.	.	16d/	16ff\	.	.	.	.	.	.	.	.	.	.
*	*	*v	*v	*	*	*	*	*	*	*	*	*	*	*	*	*	*	*	*	*
8AA-X/J	.	8a-X/	.	8dd/	8b-\	.	8A-X/J	16f/	16dd\	.	.	8f\	.	.	8f\	.	.	8dd\	qui
.	.	.	.	.	.	.	.	16d/JJ	16b-\JJ)	16A-X\	-mi-	.	.	.	.	.	.	.	.
=49	=49	=49	=49	=49	=49	=49	=49	=49	=49	=49	=49	=49	=49	=49	=49	=49	=49	=49	=49
8GG/	.	8g/	.	4ee-/	2b-\	.	8G/	16B-/LL	16ee-\LL	8G\	-ne	8e-\	.	.	8b-\	.	.	8ee-\	ve-
.	.	.	.	.	.	.	.	16e-/	16b-\	.	.	.	.	.	.	.	.	.	.
8r	.	8r	.	.	.	.	8r	16g/	16bb-\	8G\	in	16e-\	.	.	16b-\	.	.	16ee-\	-nit
.	.	.	.	.	.	.	.	16e-/JJ	16b-\JJ	.	.	16e-\	.	.	16b-\	.	.	16ee-\	in
8GG-X/	.	4r	.	4ee-/	.	.	8G-X/	(16B-/LL	16een\LL	8G-X\	no-	8d-X\	.	.	8b-\	.	.	8een\	no-
.	.	.	.	.	.	.	.	16d-X/	16b-\	.	.	.	.	.	.	.	.	.	.
8r	.	.	.	.	.	.	8r	16en/	16bb-\	16G-\	-mi-	16d-\	.	.	16b-\	.	.	16ee\	-mi-
.	.	.	.	.	.	.	.	16B-/JJ)	16ee\JJ	16G-\	-ne	16d-\	.	.	16b-\	.	.	16ee\	-ne
*	*	*	*	*v	*v	*	*	*	*	*	*	*	*	*	*	*	*	*	*
=50	=50	=50	=50	=50	=50	=50	=50	=50	=50	=50	=50	=50	=50	=50	=50	=50	=50	=50
!!LO:PB:g=original
*	*	*2\right	*	*	*	*	*	*	*	*	*	*	*	*	*	*	*	*
8FF/	.	[2f\	.	4dd\ 4ff	.	8F/	(16dn/LL	8r	4F\	.	4dn\	.	.	4f\	.	.	(4.ff\	Do-
.	.	.	.	.	.	.	16f/	.	.	.	.	.	.	.	.	.	.	.
8r	.	.	.	.	.	8r	16b-/	8ff\	.	.	.	.	.	.	.	.	.	.
.	.	.	.	.	.	.	16d/JJ	.	.	.	.	.	.	.	.	.	.	.
8F\L	.	.	.	4cc\ 4ee-	.	8F/	16c/LL	8r	4F\	.	4c\	.	.	4e-\	.	.	.	.
.	.	.	.	.	.	.	16e-/	.	.	.	.	.	.	.	.	.	.	.
8F\J	.	.	.	.	.	8r	16f/	8a/	.	.	.	.	.	.	.	.	8a\	-mi-
.	.	.	.	.	.	.	16e-/JJ)	.	.	.	.	.	.	.	.	.	.	.
=51	=51	=51	=51	=51	=51	=51	=51	=51	=51	=51	=51	=51	=51	=51	=51	=51	=51	=51
*	*	*	*	*^	*	*	*	*	*	*	*	*	*	*	*	*	*	*
8BB-/	.	4f\]	.	8dd/	4b-\	.	8B-/	(16d/LL	8r	4BB-/	.	4B-\	.	.	4d\	.	.	4b-X\)	-ni
.	.	.	.	.	.	.	.	16f/	.	.	.	.	.	.	.	.	.	.	.
8r	.	.	.	8b-/	.	.	8r	16b-/	8b-\	.	.	.	.	.	.	.	.	.	.
.	.	.	.	.	.	.	.	16f/JJ)	.	.	.	.	.	.	.	.	.	.	.
*	*	*	*	*	*	*	*	*rep	*	*	*	*	*	*	*	*	*	*	*
8D\	.	4r	.	32b-/LLL	4r	.	8D/	(16d/LL	8r	4r	.	4r	.	.	4r	.	.	4r	.
.	.	.	.	32cc/	.	.	.	.	.	.	.	.	.	.	.	.	.	.	.
.	.	.	.	32dd/	.	.	.	16f/	.	.	.	.	.	.	.	.	.	.	.
.	.	.	.	32ee-/JJJ	.	.	.	.	.	.	.	.	.	.	.	.	.	.	.
8r	.	.	.	32ff\LLL	.	.	8r	16b-/	8dd\ 8ff	.	.	.	.	.	.	.	.	.	.
.	.	.	.	32gg\	.	.	.	.	.	.	.	.	.	.	.	.	.	.	.
.	.	.	.	32aa\	.	.	.	16f/JJ)	.	.	.	.	.	.	.	.	.	.	.
.	.	.	.	32bb-\JJJ	.	.	.	.	.	.	.	.	.	.	.	.	.	.	.
*	*	*	*	*	*	*	*	*Xrep	*	*	*	*	*	*	*	*	*	*	*
*	*	*	*	*v	*v	*	*	*	*	*	*	*	*	*	*	*	*	*	*
=52	=52	=52	=52	=52	=52	=52	=52	=52	=52	=52	=52	=52	=52	=52	=52	=52	=52	=52
8E-\	.	2r	.	(16.aa\LL	.	8E-/	8g/	8r	2r	.	2r	.	.	2r	.	.	2r	.
.	.	.	.	32gg\K	.	.	.	.	.	.	.	.	.	.	.	.	.	.
8r	.	.	.	16ee-\)	.	8r	8r	8ee-\	.	.	.	.	.	.	.	.	.	.
.	.	.	.	16cc\JJ	.	.	.	.	.	.	.	.	.	.	.	.	.	.
16F\	.	.	.	(32gg\LLL	.	16F/	16b-\	16r	.	.	.	.	.	.	.	.	.	.
.	.	.	.	32ff\	.	.	.	.	.	.	.	.	.	.	.	.	.	.
16r	.	.	.	32dd\	.	16r	16r	16dd\	.	.	.	.	.	.	.	.	.	.
.	.	.	.	32b-\JJJ	.	.	.	.	.	.	.	.	.	.	.	.	.	.
16FF/	.	.	.	32ff\LLL	.	16F/	16a\	16r	.	.	.	.	.	.	.	.	.	.
.	.	.	.	32ee-\	.	.	.	.	.	.	.	.	.	.	.	.	.	.
16r	.	.	.	32cc\	.	16r	16r	16cc\	.	.	.	.	.	.	.	.	.	.
.	.	.	.	32a\JJJ)	.	.	.	.	.	.	.	.	.	.	.	.	.	.
=53	=53	=53	=53	=53	=53	=53	=53	=53	=53	=53	=53	=53	=53	=53	=53	=53	=53	=53
4BB-/	.	2r	.	8b-\	.	4B-/	8r	8r	2r	.	4d\	.	.	4f\	Be-	.	2r	.
.	.	.	.	8r	.	.	8b-\	8b-\	.	.	.	.	.	.	.	.	.	.
4r	.	.	.	4r	.	4r	4r	4r	.	.	16c#X\LL	.	.	(16en\LL	-ne-	.	.	.
.	.	.	.	.	.	.	.	.	.	.	16d\	.	.	16f\	.	.	.	.
.	.	.	.	.	.	.	.	.	.	.	16e-\	.	.	16g\	.	.	.	.
.	.	.	.	.	.	.	.	.	.	.	16d\JJ	.	.	16f\JJ)	.	.	.	.
=54	=54	=54	=54	=54	=54	=54	=54	=54	=54	=54	=54	=54	=54	=54	=54	=54	=54	=54
8BB-/	.	2r	.	8r	.	8B-/	16d/LL	8r	2r	.	16.d\LL	.	.	(16.f\LL	-di-	.	2r	.
.	.	.	.	.	.	.	16f/	.	.	.	.	.	.	.	.	.	.	.
.	.	.	.	.	.	.	.	.	.	.	32B-\JJk	.	.	32d\JJk	.	.	.	.
8r	.	.	.	(8b-\	.	8r	16b-/	8b-\	.	.	8d\	.	.	8f\)	-ctus	.	.	.
.	.	.	.	.	.	.	16f/JJ	.	.	.	.	.	.	.	.	.	.	.
*	*	*	*	*	*	*	*rep	*	*	*	*	*	*	*	*	*	*	*
8D\	.	.	.	32b-\LLL	.	8D/	16d/LL	8r	.	.	4r	.	.	4r	.	.	.	.
.	.	.	.	32cc\	.	.	.	.	.	.	.	.	.	.	.	.	.	.
.	.	.	.	32dd\	.	.	16f/	.	.	.	.	.	.	.	.	.	.	.
.	.	.	.	32ee-\JJJ	.	.	.	.	.	.	.	.	.	.	.	.	.	.
8r	.	.	.	32ff\LLL	.	8r	16b-/	8dd\ 8ff	.	.	.	.	.	.	.	.	.	.
.	.	.	.	32gg\	.	.	.	.	.	.	.	.	.	.	.	.	.	.
.	.	.	.	32aa\	.	.	16f/JJ	.	.	.	.	.	.	.	.	.	.	.
.	.	.	.	32bb-\JJJ)	.	.	.	.	.	.	.	.	.	.	.	.	.	.
*	*	*	*	*	*	*	*Xrep	*	*	*	*	*	*	*	*	*	*	*
=55	=55	=55	=55	=55	=55	=55	=55	=55	=55	=55	=55	=55	=55	=55	=55	=55	=55	=55
8E-\	.	2r	.	(16.aa\LL	.	8E-/	8r	8r	2r	.	2r	.	.	2r	.	.	2r	.
.	.	.	.	32gg\K	.	.	.	.	.	.	.	.	.	.	.	.	.	.
8r	.	.	.	16ee-\	.	8r	8g/	8ee-\	.	.	.	.	.	.	.	.	.	.
.	.	.	.	16cc\JJ)	.	.	.	.	.	.	.	.	.	.	.	.	.	.
16F\	.	.	.	(32gg\LLL	.	16F/	16r	16r	.	.	.	.	.	.	.	.	.	.
.	.	.	.	32ff\	.	.	.	.	.	.	.	.	.	.	.	.	.	.
16r	.	.	.	32dd\	.	16r	16b-\	16dd\	.	.	.	.	.	.	.	.	.	.
.	.	.	.	32b-\JJJ	.	.	.	.	.	.	.	.	.	.	.	.	.	.
16FF/	.	.	.	32ff\LLL	.	16F/	16r	16r	.	.	.	.	.	.	.	.	.	.
.	.	.	.	32ee-\	.	.	.	.	.	.	.	.	.	.	.	.	.	.
16r	.	.	.	32cc\	.	16r	16a\	16cc\	.	.	.	.	.	.	.	.	.	.
.	.	.	.	32a\JJJ)	.	.	.	.	.	.	.	.	.	.	.	.	.	.
=56	=56	=56	=56	=56	=56	=56	=56	=56	=56	=56	=56	=56	=56	=56	=56	=56	=56	=56
4BB-/	.	2r	.	8b-\	.	4B-/	8r	8r	(4F\	Be-	2r	.	.	2r	.	.	4dd\	Be-
.	.	.	.	8r	.	.	8b-\	8b-\	.	.	.	.	.	.	.	.	.	.
4r	.	.	.	4r	.	4r	4r	4r	16En\LL	-ne-	.	.	.	.	.	.	(16cc#X\LL	-ne-
.	.	.	.	.	.	.	.	.	16F\	.	.	.	.	.	.	.	16dd\	.
.	.	.	.	.	.	.	.	.	16G\	.	.	.	.	.	.	.	16ee-\	.
.	.	.	.	.	.	.	.	.	16F\JJ)	.	.	.	.	.	.	.	16dd\JJ)	.
=57	=57	=57	=57	=57	=57	=57	=57	=57	=57	=57	=57	=57	=57	=57	=57	=57	=57	=57
!!LO:PB:g=original
2r	.	2r	.	8r	.	2r	2r	2r	16.F\LL	-di-	4r	.	.	4r	.	.	16.dd\LL	-di-
.	.	.	.	.	.	.	.	.	32D\JJk	.	.	.	.	.	.	.	32b-\JJk	.
.	.	.	.	8B-/	.	.	.	.	8F\	-ctus	.	.	.	.	.	.	8dd\	-ctus
.	.	.	.	(32B-/LLL	.	.	.	.	8r	.	8r	.	.	8r	.	.	8r	.
.	.	.	.	32c/	.	.	.	.	.	.	.	.	.	.	.	.	.	.
.	.	.	.	32d/	.	.	.	.	.	.	.	.	.	.	.	.	.	.
.	.	.	.	32e-/JJJ	.	.	.	.	.	.	.	.	.	.	.	.	.	.
.	.	.	.	32f/LLL	.	.	.	.	16BB-/LL	qui	(8d\	qui	.	8f\	qui	.	[8b-\	qui
.	.	.	.	32g/	.	.	.	.	.	.	.	.	.	.	.	.	.	.
.	.	.	.	32a/	.	.	.	.	16D/JJ	.	.	.	.	.	.	.	.	.
.	.	.	.	32b-/JJJ)	.	.	.	.	.	.	.	.	.	.	.	.	.	.
=58	=58	=58	=58	=58	=58	=58	=58	=58	=58	=58	=58	=58	=58	=58	=58	=58	=58	=58
2r	.	2r	.	(32cc\LLL	.	2r	2r	2r	4F\	ve-	4c\)	ve-	.	4f\	ve-	.	4b-\]	ve-
.	.	.	.	32dd\	.	.	.	.	.	.	.	.	.	.	.	.	.	.
.	.	.	.	32ee-\	.	.	.	.	.	.	.	.	.	.	.	.	.	.
.	.	.	.	32eeX\JJJ	.	.	.	.	.	.	.	.	.	.	.	.	.	.
.	.	.	.	32ff\LLL	.	.	.	.	.	.	.	.	.	.	.	.	.	.
.	.	.	.	32gg\	.	.	.	.	.	.	.	.	.	.	.	.	.	.
.	.	.	.	32aa\	.	.	.	.	.	.	.	.	.	.	.	.	.	.
.	.	.	.	32bb-\JJJ	.	.	.	.	.	.	.	.	.	.	.	.	.	.
.	.	.	.	8ccc\)	.	.	.	.	8F\	-nit	8c\	-nit	.	8f\	-nit	.	8b-\	-nit
.	.	.	.	8r	.	.	.	.	8F\	in	8c\	in	.	8f\	in	.	8b-\	in
=59	=59	=59	=59	=59	=59	=59	=59	=59	=59	=59	=59	=59	=59	=59	=59	=59	=59	=59
!	!	!	!	!LO:N:vis=2.	!	!	!	!	!	!	!	!	!	!	!	!	!	!
2r	.	2r	.	(4.F/	.	2r	2r	2r	8F\	no-	8c\	no-	.	8f\	no-	.	8b-\	no-
.	.	.	.	.	.	.	.	.	16F\	-mi-	16c\	-mi-	.	16f\	-mi-	.	16a\	-mi-
.	.	.	.	.	.	.	.	.	16F\	-ne	16c\	-ne	.	16f\	-ne	.	16g\	-ne
.	.	.	.	.	.	.	.	.	8.F\	do-	8.c\	do-	.	8f\	do-	.	8.a\	do-
.	.	.	.	8E-/)	.	.	.	.	.	.	.	.	.	8f\	-mi-	.	.	.
.	.	.	.	.	.	.	.	.	16F\	-mi-	16c\	-mi-	.	.	.	.	16a\	-mi-
=60	=60	=60	=60	=60	=60	=60	=60	=60	=60	=60	=60	=60	=60	=60	=60	=60	=60	=60
!!LO:PB:g=original
4r	.	2r	.	32D/LLL	.	4r	4r	4r	4BB-/	-ni	4d\	-ni	.	4f\	-ni	.	4b-\	-ni
.	.	.	.	32F/	.	.	.	.	.	.	.	.	.	.	.	.	.	.
.	.	.	.	32B-/	.	.	.	.	.	.	.	.	.	.	.	.	.	.
.	.	.	.	32d/JJJ	.	.	.	.	.	.	.	.	.	.	.	.	.	.
.	.	.	.	32f/LLL	.	.	.	.	.	.	.	.	.	.	.	.	.	.
.	.	.	.	32b-/	.	.	.	.	.	.	.	.	.	.	.	.	.	.
.	.	.	.	32dd/	.	.	.	.	.	.	.	.	.	.	.	.	.	.
.	.	.	.	32ff/JJJ	.	.	.	.	.	.	.	.	.	.	.	.	.	.
16.r	.	.	.	8bb-\	.	16.r	16.r	16.r	4r	.	4r	.	.	4r	.	.	4r	.
32B-\KLL	.	.	.	.	.	32F/KLL	32B-/KLL	32d/KLL	.	.	.	.	.	.	.	.	.	.
16.F\	.	.	.	8r	.	16.F/	16.B-/	16.d/	.	.	.	.	.	.	.	.	.	.
32D\JJk	.	.	.	.	.	32F/JJk	32B-/JJk	32d/JJk	.	.	.	.	.	.	.	.	.	.
=61	=61	=61	=61	=61	=61	=61	=61	=61	=61	=61	=61	=61	=61	=61	=61	=61	=61	=61
(16BB-/LL	.	2r	.	2r	.	8F/	8B-/	8d/	2r	.	2r	.	.	2r	.	.	2r	.
16D/	.	.	.	.	.	.	.	.	.	.	.	.	.	.	.	.	.	.
16F/	.	.	.	.	.	8r	8r	8r	.	.	.	.	.	.	.	.	.	.
16D/JJ	.	.	.	.	.	.	.	.	.	.	.	.	.	.	.	.	.	.
16BB-/LL	.	.	.	.	.	8F/	8B-/	8d/	.	.	.	.	.	.	.	.	.	.
16D/	.	.	.	.	.	.	.	.	.	.	.	.	.	.	.	.	.	.
16F/	.	.	.	.	.	8r	8r	8r	.	.	.	.	.	.	.	.	.	.
16D/JJ	.	.	.	.	.	.	.	.	.	.	.	.	.	.	.	.	.	.
=62	=62	=62	=62	=62	=62	=62	=62	=62	=62	=62	=62	=62	=62	=62	=62	=62	=62	=62
!LO:TX:b:t=Da Capo\n Oſanna:problem=wpisane w poprzek przez wszystkie głosy	!	!	!	!	!	!	!	!	!	!	!	!	!	!	!	!	!	!
4BB-/)	.	4r	.	4r	.	4F/	4B-/	4d/	4r	.	4r	.	.	4r	.	.	4r	.
==	==	==	==	==	==	==	==	==	==	==	==	==	==	==	==	==	==	==
*-	*-	*-	*-	*-	*-	*-	*-	*-	*-	*-	*-	*-	*-	*-	*-	*-	*-	*-
!!!system-decoration: [g1{g2}s7,s8,s9,s10]
!!!RDF**kern: > = above
!!!RDF**kern: < = below
!!!AIN: 1 alto 1 clars 1 cor 3 empty 1 organ 1 tenor 1 viola 1 vox
!!!ENC: Marta Lawrence
!!!END: 2020-06-12
!!!ENC: Berenika Jozajtis
!!!END: 2020-04-06
